!!!COM:	van Weerbeke, Gaspar
!!!CDT:	~1445//-~1517//
!!!OPR:	Quam pulchra es Cycle
!!!OTL:	Tota pulchra es
!!!AGN:	Motet
!!!SMS:	Librone I
!!!SCT:	Gas2017h
!!!SCA:	Gas2017h
!!!voices:	4
**kern	**text	**kern	**text	**kern	**text	**kern	**text
*staff4	*staff4	*staff3	*staff3	*staff2	*staff2	*staff1	*staff1
*Ivox	*	*Ivox	*	*Ivox	*	*Ivox	*
*I"Bassus	*	*I"Tenor	*	*I"Altus	*	*I"Superius	*
*I'B	*	*I'T	*	*I'A	*	*I'S	*
*>[A,B]	*>[A,B]	*>[A,B]	*>[A,B]	*>[A,B]	*>[A,B]	*>[A,B]	*>[A,B]
*>A	*>A	*>A	*>A	*>A	*>A	*>A	*>A
*clefF4	*	*clefGv2	*	*clefGv2	*	*clefG2	*
*k[b-]	*	*k[b-]	*	*k[b-]	*	*k[b-]	*
*M3/1	*	*M3/1	*	*M3/1	*	*M3/1	*
*met(O)	*	*met(O)	*	*met(O)	*	*met(O)	*
=1-	=1-	=1-	=1-	=1-	=1-	=1-	=1-
1G	To-	0G	To-	1d	To-	0g	To-
1E	.	.	.	1e	.	.	.
1D	-ta	2.F/	-ta	1f	-ta	[1a	-ta
.	.	4G/	.	.	.	.	.
=2	=2	=2	=2	=2	=2	=2	=2
2F\	.	2A/	.	2d\	.	2a/]	.
1G	pul-	1B-	pul-	1e	pul-	2g/	pul-
.	.	.	.	.	.	2e/	.
2F\	.	1A	.	1d	.	2f/	.
1E	-chra	.	.	.	.	1g	-chra
.	.	2G/	-chra	2c#i\	-chra	.	.
=3	=3	=3	=3	=3	=3	=3	=3
1.D	es,	1.A	es,	1d	es,	1.f	es,
.	.	.	.	2.d\	a-	.	.
2F\	a-	2A/	a-	.	.	2a/	a-
.	.	.	.	4e\	.	.	.
2D\	-mi-	1d	-mi-	4f\	.	2a/	-mi-
.	.	.	.	4g\	.	.	.
2F\	-ca	.	.	2a\	.	2a/	-ca
=4	=4	=4	=4	=4	=4	=4	=4
2G\	me-	2d\	-ca	2g\	-mi-	2b-\	me-
2A\	.	1c	me-	2e\	.	1a	.
2F\	.	.	.	2f\	-ca	.	.
2G\	.	2B-\	.	1.d	.	1g	.
1D	-a,	1A	.	.	.	.	.
.	.	.	.	.	.	2f#i/	.
=5	=5	=5	=5	=5	=5	=5	=5
2r	.	0G	-a,	1d	a,	1g	-a,
2B-\	et	.	.	.	.	.	.
1.B-	ma-	.	.	2r	.	1r	.
.	.	.	.	2d\	et	.	.
.	.	1r	.	2d\	ma-	1b-	et
2B-\	-cu-	.	.	2d\	-cu-	.	.
=6	=6	=6	=6	=6	=6	=6	=6
1F	-la	1A	et	1f	-la	1a	ma-
1.G	non	1.B-	ma-	1.d	non	2g/	.
.	.	.	.	.	.	2.g/	-cu-
.	.	.	.	.	.	4f/	.
2G\	est,	2B-\	-cu-	2e\	est,	2g/	.
=7	=7	=7	=7	=7	=7	=7	=7
1.D	non	0F	-la	1.f	non	1a	-la
.	.	.	.	.	.	2.a/	non
1F	.	.	.	2d\	est	.	.
.	.	.	.	.	.	4b-\	.
.	.	1A	non	2c\	in	1cc	.
2D\	est,	.	.	2d\	.	.	.
=8	=8	=8	=8	=8	=8	=8	=8
2BB-/	in	2B-\	est	0f	te.	2dd\	est
2F\	.	2A/	.	.	.	1cc	in
2D\	.	2B-\	.	.	.	.	.
2BB-/	.	2d\	.	.	.	1b-	.
1F	te.	1c	in	2r	.	.	.
.	.	.	.	2f\	Fa-	2a/	.
=9	=9	=9	=9	=9	=9	=9	=9
2r	.	1B-	te.	2d\	-vus	1b-	te.
2G\	Fa-	.	.	2d\	dis-	.	.
2G\	-vus	2r	.	2d\	-til-	2r	.
2G\	dis-	2d\	Fa-	2d\	-lans	2b-\	Fa-
1G	-til-	2d\	-vus	2.g\	la-	2b-\	-vus
.	.	2d\	dis-	.	.	2b-\	dis-
.	.	.	.	4f\	.	.	.
=10	=10	=10	=10	=10	=10	=10	=10
1B-	-lans	1d	-til-	2.d\	-bi-	1b-	-til-
.	.	.	.	4e\	.	.	.
1F	la-	2c\	-lans	1f	-a	2a/	-lans
.	.	1c	la-	.	.	1a	la-
2F\	-bi-	.	.	2f\	tu-	.	.
[2G\	-a	2B-\	-bi-	[2e-\	.	2g/	-bi-
=11	=11	=11	=11	=11	=11	=11	=11
4G\]	.	1B-	-a	4e-i\]	.	1g	-a
4F\	.	.	.	4d\	.	.	.
4E-i\	.	.	.	4c\	.	.	.
4D\	.	.	.	4B-\	.	.	.
1E-	.	1G	tu-	1c	.	1g	tu-
1D	.	1A	-a,	1d	-a,	1f	-a,
=12	=12	=12	=12	=12	=12	=12	=12
2G\	tu-	2B-\	tu-	1r	.	2d/	tu-
2C/	.	1c	.	.	.	2.e/	.
1E	.	.	.	1r	.	.	.
.	.	.	.	.	.	4d/	.
.	.	2G/	.	.	.	1g	.
1D	-a	1A	.	1d	mel	.	.
.	.	.	.	.	.	2f#i/	.
=13	=13	=13	=13	=13	=13	=13	=13
2r	.	1G	-a	2d\	et	1g	-a
1B-	mel	.	.	1d	lac	.	.
.	.	1r	.	.	.	2r	.
2B-\	et	.	.	1.g	.	1dd	mel
[1G	lac	1d	mel	.	.	.	.
.	.	.	.	.	.	2dd\	et
=14	=14	=14	=14	=14	=14	=14	=14
2G\]	.	2d\	et	0g	lin-	1b-	lac
2G\	sub	1B-	lac	.	.	.	.
1E	lin-	.	.	.	.	1g	sub
.	.	1G	sub	.	.	.	.
1C	.	.	.	1e	.	2.cc\	lin-
.	.	[2c\	lin-	.	.	.	.
.	.	.	.	.	.	4b-\	.
=15	=15	=15	=15	=15	=15	=15	=15
2C/	-gua	2c\]	.	2c\	-gua	1a	-gua
1F	tu-	2c\	-gua	1c	tu-	.	.
.	.	2A/	.	.	.	2f/	.
2D\	.	2F/	.	2B-\	.	1f	tu-
1C	-a,	1G	tu-	1c	-a,	.	.
.	.	.	.	.	.	2e/	.
=16	=16	=16	=16	=16	=16	=16	=16
1r	.	1F	-a,	2r	.	1f	-a,
.	.	.	.	2c\	o-	.	.
1.F	o-	1r	.	2d\	-dor	1.b-	o-
.	.	.	.	2d\	un-	.	.
.	.	1r	.	2d\	-guen-	.	.
2D\	-dor	.	.	2d\	-to-	2a/	-dor
=17	=17	=17	=17	=17	=17	=17	=17
1E-	un-	1.B-	o-	1G	-rum,	1g	un-
1D	-guen-	.	.	2r	.	1f	-guen-
.	.	2A/	-dor	2f\	un-	.	.
1E-i	-to-	1G	un-	1g	-guen-	1b-	-to-
=18	=18	=18	=18	=18	=18	=18	=18
1F	-rum	1F	-guen-	1a	-to-	2a/	-run
.	.	.	.	.	.	2cc\	.
1G	.	1B-	-to-	1g	-rum,	2b-\	tu-
.	.	.	.	.	.	2g/	.
2r	.	2A/	-rum	2r	.	2f/	.
2Eni\	tu-	2B-\	tu-	[2G/	tu-	[2g/	-o-
=19	=19	=19	=19	=19	=19	=19	=19
1E	-o-	1c	-o	4G/]	.	2g/]	.
.	.	.	.	4A/	.	.	.
.	.	.	.	4B-\	.	2e/	.
.	.	.	.	4G/	.	.	.
0D	-rum	0d	rum	1A	-o-	0f	-rum
.	.	.	.	1F	-rum	.	.
=20	=20	=20	=20	=20	=20	=20	=20
2r	.	2r	.	2r	.	2r	.
2BB-/	su-	2d\	su-	2f\	su-	2b-\	su-
2BB-/	-per	2d\	-per	2f\	-per	2b-\	-per-
1BB-	om-	1d	om-	1f	om-	1b-	-om-
2F\	-a	2c\	-ni-	2f\	-ni-	2a/	-ni-
=21	=21	=21	=21	=21	=21	=21	=21
1F	a-	1c	-a	1f	-a	1a	-a
1.G	.	2.B-\	a-	2.d\	a-	2.g/	a-
.	.	4A/	.	4c\	-ro-	4f/	.
.	.	2B-\	-ro-	4d\	.	2g/	-ro-
.	.	.	.	4e\	.	.	.
[2F\	-ro-	[2c\	-ma-	[2f\	-ma-	[2a/	-ma-
=22	=22	=22	=22	=22	=22	=22	=22
2F\]	.	2c\]	.	4f\]	.	2a/]	.
.	.	.	.	4e\	.	.	.
2E\	-ma-	2G/	.	2c\	.	2g/	.
1D;l	-ta.	1A;l	-ta.	1d;l	-ta.	1f#i;l	-ta.
1r	.	1r	.	1r	.	1r	.
!!LO:LB:i:g=z
=23||	=23||	=23||	=23||	=23||	=23||	=23||	=23||
*>B	*>B	*>B	*>B	*>B	*>B	*>B	*>B
*clefF4	*	*clefGv2	*	*clefGv2	*	*clefG2	*
*k[b-]	*	*k[b-]	*	*k[b-]	*	*k[b-]	*
*M9/2	*	*M9/2	*	*M9/2	*	*M9/2	*
*met(O3)	*	*met(O3)	*	*met(O3)	*	*met(O3)	*
!!section: Iam enim hiems
!!!OMD: Iam enim hiems
1.B-	Iam	1.G	.	1.d	.	1g	.
.	.	.	.	.	.	2b-\	.
1G	e-	1.r	.	1.g	.	1b-	.
2G\	-nim	.	.	.	.	2b-\	.
1E	hi-	1.r	.	1g	.	1b-	.
2F\	.	.	.	2f\	.	2a/	.
=24	=24	=24	=24	=24	=24	=24	=24
1.D	-ems	2%9r	.	1f	.	1a	.
.	.	.	.	2f\	.	1dd	.
1G	tran-	.	.	1g	.	.	.
.	.	.	.	.	.	2.ee\	.
2A\	-si	.	.	2f\	.	.	.
.	.	.	.	.	.	4dd\	.
2B-\	.	.	.	2d\	.	1dd	.
1A	it,	.	.	1e	.	.	.
.	.	.	.	.	.	2cc#i\	.
=25	=25	=25	=25	=25	=25	=25	=25
1D	im-	1d	.	2d\	.	1dd	.
.	.	.	.	2a\	.	.	.
2E\	-ber	2c\	.	2g\	.	2r	.
2D\	ab-	1d	.	1f	.	1dd	.
2F\	.	.	.	.	.	.	.
2E\	-i-	2e\	.	2g\	.	2cc\	.
1D	-it	1f	.	1f	.	1dd	.
2C/	et	2g\	.	2e\	.	2ee\	.
=26	=26	=26	=26	=26	=26	=26	=26
2D\	re-	2f\	.	1d	.	1ff	.
2BB-/	.	2d\	.	.	.	.	.
2C/	.	2c\	.	2r	.	2ee\	.
2BB-/	.	1f	.	1.r	.	2dd\	.
1A-	-ces-	.	.	.	.	2.cc\	.
.	.	2e-i\	.	.	.	.	.
.	.	.	.	.	.	4b-\	.
2B-\	.	2d\	.	1f	.	1b-	.
1F	.	1c	.	.	.	.	.
.	.	.	.	2f\	.	2a/	.
=27	=27	=27	=27	=27	=27	=27	=27
1BB-	.	1B-	.	1f	.	1b-	.
2r	.	2r	.	2d\	.	2r	.
1E-	.	1B-	.	1.e-	.	1g	.
2E-i\	.	2B-\	.	.	.	2g/	.
1E-i	.	1B-	.	1e-i	.	1g	.
2F\	.	2A/	.	2d\	.	2f/	.
=28	=28	=28	=28	=28	=28	=28	=28
1D	-pa-	1A	.	1d	.	1.f	.
2E-i\	.	2G/	.	2B-\	.	.	.
1E-i	-ru-	1.G	.	1B-	.	1.g	.
2C/	.	.	.	2c\	.	.	.
1C	-e-	1.c	.	2.G/	.	1g	.
.	.	.	.	4F/	.	.	.
2Eni\	.	.	.	2G/	.	2e/	.
=29	=29	=29	=29	=29	=29	=29	=29
2.D\	.	1.d	.	1A	.	2.f/	.
4E\	.	.	.	.	.	4g/	.
4F\	.	.	.	2F/	.	4a/	.
4G\	.	.	.	.	.	4b-\	.
2A\	.	1c	.	1f	.	2cc\	.
2F\	.	.	.	.	.	2a/	.
2G\	.	2B-\	.	2d\	.	2b-\	.
2E\	.	2c\	.	2c\	.	1g	.
1D	-runt,	1A	.	1d	.	.	.
.	.	.	.	.	.	2f#i/	.
=30	=30	=30	=30	=30	=30	=30	=30
2%9r	.	1G	.	1d	.	1g	.
.	.	2B-\	.	2g\	.	2r	.
.	.	1B-	.	1g	.	1.r	.
.	.	2A/	.	2f\	.	.	.
.	.	2F/	.	1f	.	1.r	.
.	.	1G	.	.	.	.	.
.	.	.	.	2e\	.	.	.
=31	=31	=31	=31	=31	=31	=31	=31
2r	.	1F	.	2f\	.	2r	.
2r	.	.	.	2d\	.	2r	.
2D\	o-	2d\	.	2r	.	2d/	.
1D	-do-	1d	.	1.r	.	2.f/	.
.	.	.	.	.	.	4g/	.
2F\	-rem	2c\	.	.	.	2a/	.
2D\	de-	1B-	.	1.r	.	2b-\	.
1C	-de-	.	.	.	.	1cc	.
.	.	2A/	.	.	.	.	.
=32	=32	=32	=32	=32	=32	=32	=32
1BB-	-runt	2B-\	.	2r	.	1f	.
.	.	2F/	.	2r	.	.	.
2d\	o-	2r	.	2d\	.	2r	.
1d	.	1.r	.	1f	.	1.r	.
2c\	-rem	.	.	2g\	.	.	.
2B-\	de-	1.r	.	1b-	.	1.r	.
1c	-de-	.	.	.	.	.	.
.	.	.	.	2a\	.	.	.
=33	=33	=33	=33	=33	=33	=33	=33
1B-	-runt,	2r	.	2b-\	.	2%9r	.
.	.	2r	.	2f\	.	.	.
2B-\	et	2d\	.	2r	.	.	.
1F	vox	1f	.	1.r	.	.	.
2G\	.	2e\	.	.	.	.	.
2F\	.	1d	.	1.r	.	.	.
1E	tur-	.	.	.	.	.	.
.	.	2c#i\	.	.	.	.	.
=34	=34	=34	=34	=34	=34	=34	=34
1D	-tu-	2d\	.	2%9r	.	2r	.
.	.	2A/	.	.	.	2r	.
2F\	.	2r	.	.	.	2d/	.
1BB-	-ris	1d	.	.	.	2.f/	.
.	.	.	.	.	.	4g/	.
2r	.	2c\	.	.	.	2a/	.
1.r	.	2B-\	.	.	.	2b-\	.
.	.	1c	.	.	.	2.a/	.
.	.	.	.	.	.	4g/	.
=35	=35	=35	=35	=35	=35	=35	=35
1.r	.	2B-\	.	1.r	.	1g	.
.	.	1A	.	.	.	.	.
.	.	.	.	.	.	2f#i/	.
1r	.	1G	.	1r	.	1g	.
2D\	au-	2F/	.	2d\	.	2a/	.
1D	-di-	1F	.	1f	.	1a	.
2E\	-ta	2G/	.	2c\	.	2g/	.
=36	=36	=36	=36	=36	=36	=36	=36
1.D;	est	1.A;	.	1.d;	.	1f	.
.	.	.	.	.	.	2r	.
2r	.	1.r	.	2r	.	1.r	.
2r	.	.	.	2r	.	.	.
2G\	in	.	.	2g\	.	.	.
1G	ter-	1.r	.	1g	.	1.r	.
2B-\	.	.	.	2f\	.	.	.
=37	=37	=37	=37	=37	=37	=37	=37
2A\	.	1.r	.	1f	.	2%9r	.
1G	.	.	.	.	.	.	.
.	.	.	.	2e\	.	.	.
1F	-ra	2r	.	2f\	.	.	.
.	.	2r	.	2d\	.	.	.
2D\	.	2d\	.	2r	.	.	.
1F	nos-	1d	.	1.r	.	.	.
2F\	.	2c\	.	.	.	.	.
=38	=38	=38	=38	=38	=38	=38	=38
2D\	.	1B-	.	1.r	.	1.r	.
1C	.	.	.	.	.	.	.
.	.	2A/	.	.	.	.	.
1BB-	-tra.	2B-\	.	2r	.	2r	.
.	.	2F/	.	2r	.	2r	.
2r	.	2r	.	2A/	.	2d/	.
1.r	.	1.r	.	2d\	.	1f	.
.	.	.	.	2d\	.	.	.
.	.	.	.	2e-\	.	2g/	.
=39	=39	=39	=39	=39	=39	=39	=39
2%9r	.	1.r	.	2d\	.	1b-	.
.	.	.	.	1c	.	.	.
.	.	.	.	.	.	2a/	.
.	.	2r	.	1B-	.	2b-\	.
.	.	2r	.	.	.	2f/	.
.	.	2G/	.	2r	.	2b-\	.
.	.	1G	.	1.r	.	1b-	.
.	.	2F/	.	.	.	2a/	.
=40	=40	=40	=40	=40	=40	=40	=40
1.r	.	1F	.	1.r	.	2f/	.
.	.	.	.	.	.	1g	.
.	.	2E/	.	.	.	.	.
1r	.	2F/	.	1r	.	2a/	.
.	.	2D/	.	.	.	2f/	.
2d\	a-	2r	.	2d\	.	2r	.
1d	-mi-	1.r	.	2.f\	.	1.r	.
.	.	.	.	4g\	.	.	.
2c\	.	.	.	2a\	.	.	.
=41	=41	=41	=41	=41	=41	=41	=41
2B-\	-ca	1.r	.	2b-\	.	1.r	.
1c	me-	.	.	2.a\	.	.	.
.	.	.	.	4g\	.	.	.
2B-\	.	1.r	.	1g	.	1.r	.
1A	.	.	.	.	.	.	.
.	.	.	.	2f#i\	.	.	.
1G	-a,	1r	.	1g	.	1r	.
2G\	et	2B-\	.	2d\	.	2dd\	.
=42	=42	=42	=42	=42	=42	=42	=42
1.G	ve-	2.B-\	.	1.g	.	2.dd\	.
.	.	4G/	.	.	.	4cc\	.
.	.	4A/	.	.	.	2b-\	.
.	.	4B-\	.	.	.	.	.
1.D;	-ni,	1.d;	.	1.f;	.	1.a;	.
2r	.	1.r	.	2r	.	1.r	.
2r	.	.	.	2r	.	.	.
2G\	ve-	.	.	2d\	.	.	.
=43	=43	=43	=43	=43	=43	=43	=43
1G	-ni-	1.r	.	2.d\	.	2%9r	.
.	.	.	.	4e\	.	.	.
2F\	-de	.	.	2f\	.	.	.
1F	Li-	1.r	.	2f\	.	.	.
.	.	.	.	2g\	.	.	.
2E\	-ba-	.	.	2g\	.	.	.
2F\	.	1r	.	2a\	.	.	.
2D\	-no,	.	.	2f\	.	.	.
2D\	ve-	2d\	.	2r	.	.	.
=44	=44	=44	=44	=44	=44	=44	=44
1F	-ni-	1d	.	2%9r	.	1.r	.
2F\	-de	2c\	.	.	.	.	.
2D\	Li-	1B-	.	.	.	1.r	.
2C/	.	.	.	.	.	.	.
2C/	-ba-	2A/	.	.	.	.	.
1BB-	-no,	2B-\	.	.	.	1r	.
.	.	2F/	.	.	.	.	.
2r	.	2d\	.	.	.	2d/	.
=45	=45	=45	=45	=45	=45	=45	=45
2%9r	.	1d	.	2%9r	.	2.f/	.
.	.	.	.	.	.	4g/	.
.	.	2c\	.	.	.	2a/	.
.	.	2B-\	.	.	.	2b-\	.
.	.	1c	.	.	.	2.a/	.
.	.	.	.	.	.	4g/	.
.	.	2B-\	.	.	.	1g	.
.	.	1A	.	.	.	.	.
.	.	.	.	.	.	2f#i/	.
=46	=46	=46	=46	=46	=46	=46	=46
1B-	ve-	1.G	.	1d	.	2.g/	.
.	.	.	.	.	.	4a/	.
2B-\	-ni,	.	.	2d\	.	4b-\	.
.	.	.	.	.	.	4cc\	.
2.B-\	co-	2.G/	.	1d	.	2.dd\	.
4A\	.	4A/	.	.	.	4cc\	.
2G\	.	4B-\	.	2g\	.	2b-\	.
.	.	4c\	.	.	.	.	.
2D\	-ro-	1d	.	2f\	.	2a/	.
1G	-na-	.	.	1g	.	2.b-\	.
.	.	2B-\	.	.	.	.	.
.	.	.	.	.	.	4a/	.
=47	=47	=47	=47	=47	=47	=47	=47
2C/	.	2c\	.	2e\	.	1g	.
1D	-be-	1A	.	1d	.	.	.
.	.	.	.	.	.	2f#i/	.
0.Gl	.	0.Gl	.	0.dl	.	0.gl	.
==	==	==	==	==	==	==	==
*-	*-	*-	*-	*-	*-	*-	*-
!!!RDF**kern: l=long note in original notation
!!!RDF**kern: i=editorial accidental
!!!ENC:	Clare Bokulich
!!!END:	2016/03/30/
!!!EED:	Jesse Rodin
!!!EEV:	2016/03/30/
!!!ONB:	Translated from MusicXML and edited on 2016/03/30/ by Craig Sapp
!!muse2ps: C^@{COM}\nSource: @{SMS}^i2I150v105,105,105,150Q16c80
!!muse2ps: T^@{OPR}^u^8. @{OTL}^l2550t300
